Numix-Circle/48x48/apps/steam_icon_70300.svg

<?xml version="1.0" encoding="UTF-8" standalone="no"?>
<svg
   xmlns:dc="http://purl.org/dc/elements/1.1/"
   xmlns:cc="http://creativecommons.org/ns#"
   xmlns:rdf="http://www.w3.org/1999/02/22-rdf-syntax-ns#"
   xmlns:svg="http://www.w3.org/2000/svg"
   xmlns="http://www.w3.org/2000/svg"
   xmlns:sodipodi="http://sodipodi.sourceforge.net/DTD/sodipodi-0.dtd"
   xmlns:inkscape="http://www.inkscape.org/namespaces/inkscape"
   viewBox="0 0 48 48"
   id="svg2"
   version="1.1"
   inkscape:version="0.48.4 r9939"
   width="100%"
   height="100%"
   sodipodi:docname="steam_icon_70300.svg">
  <metadata
     id="metadata67">
    <rdf:RDF>
      <cc:Work
         rdf:about="">
        <dc:format>image/svg+xml</dc:format>
        <dc:type
           rdf:resource="http://purl.org/dc/dcmitype/StillImage" />
      </cc:Work>
    </rdf:RDF>
  </metadata>
  <sodipodi:namedview
     pagecolor="#ffffff"
     bordercolor="#666666"
     borderopacity="1"
     objecttolerance="10"
     gridtolerance="10"
     guidetolerance="10"
     inkscape:pageopacity="0"
     inkscape:pageshadow="2"
     inkscape:window-width="640"
     inkscape:window-height="480"
     id="namedview65"
     showgrid="false"
     inkscape:zoom="4.9166667"
     inkscape:cx="24"
     inkscape:cy="22.372881"
     inkscape:window-x="0"
     inkscape:window-y="0"
     inkscape:window-maximized="0"
     inkscape:current-layer="svg2" />
  <defs
     id="defs4">
    <linearGradient
       id="1"
       gradientUnits="userSpaceOnUse"
       y1="15"
       x2="0"
       y2="11"
       gradientTransform="matrix(15.333333,0,0,11.5,414.99999,-125.5)">
      <stop
         id="stop7" />
      <stop
         offset="1"
         stop-opacity="0"
         id="stop9" />
    </linearGradient>
    <clipPath
       id="clipPath-297957161">
      <g
         transform="translate(0,-1004.3622)"
         id="g12">
        <path
           d="m -24 13 c 0 1.105 -0.672 2 -1.5 2 -0.828 0 -1.5 -0.895 -1.5 -2 0 -1.105 0.672 -2 1.5 -2 0.828 0 1.5 0.895 1.5 2 z"
           transform="matrix(15.333333,0,0,11.5,414.99999,878.8622)"
           fill="#1890d0"
           id="path14" />
      </g>
    </clipPath>
    <clipPath
       id="clipPath-308442271">
      <g
         transform="translate(0,-1004.3622)"
         id="g17">
        <path
           d="m -24 13 c 0 1.105 -0.672 2 -1.5 2 -0.828 0 -1.5 -0.895 -1.5 -2 0 -1.105 0.672 -2 1.5 -2 0.828 0 1.5 0.895 1.5 2 z"
           transform="matrix(15.333333,0,0,11.5,414.99999,878.8622)"
           fill="#1890d0"
           id="path19" />
      </g>
    </clipPath>
    <linearGradient
       id="1-0"
       gradientUnits="userSpaceOnUse"
       y1="15"
       x2="0"
       y2="11"
       gradientTransform="matrix(15.333333,0,0,11.5,414.99999,-125.5)">
      <stop
         id="stop7-8" />
      <stop
         offset="1"
         stop-opacity="0"
         id="stop9-5" />
    </linearGradient>
  </defs>
  <g
     transform="translate(9.9999996e-7,0.0022)"
     id="g21">
    <g
       transform="translate(0,-1004.3622)"
       id="g23">
      <path
         style="opacity:0.05"
         inkscape:connector-curvature="0"
         d="m 25,1006.36 c -12.703,0 -23,10.298 -23,23 0,6.367 2.601,12.12 6.781,16.281 4.085,3.712 9.514,5.969 15.469,5.969 12.703,0 23,-10.297 23,-23 0,-5.954 -2.256,-11.384 -5.969,-15.469 -4.165,-4.181 -9.914,-6.781 -16.281,-6.781 z m 16.281,6.781 c 3.854,4.113 6.219,9.637 6.219,15.719 0,12.703 -10.297,23 -23,23 -6.081,0 -11.606,-2.364 -15.719,-6.219 4.16,4.144 9.883,6.719 16.219,6.719 12.703,0 23,-10.297 23,-23 0,-6.335 -2.575,-12.06 -6.719,-16.219 z"
         id="path25" />
      <path
         style="opacity:0.1"
         inkscape:connector-curvature="0"
         d="m 41.28,1013.14 c 3.712,4.085 5.969,9.514 5.969,15.469 0,12.703 -10.297,23 -23,23 -5.954,0 -11.384,-2.256 -15.469,-5.969 4.113,3.854 9.637,6.219 15.719,6.219 12.703,0 23,-10.297 23,-23 0,-6.081 -2.364,-11.606 -6.219,-15.719 z"
         id="path27" />
      <path
         style="opacity:0.2"
         inkscape:connector-curvature="0"
         transform="matrix(15.333333,0,0,11.5,415.24999,879.11222)"
         d="m -24,13 a 1.5,2 0 1 1 -3,0 1.5,2 0 1 1 3,0 z"
         id="path29" />
    </g>
  </g>
  <g
     transform="translate(9.9999996e-7,0.0022)"
     id="g31">
    <g
       transform="translate(0,-1004.3622)"
       id="g33">
      <path
         style="fill:#474747"
         inkscape:connector-curvature="0"
         d="m -24,13 c 0,1.105 -0.672,2 -1.5,2 -0.828,0 -1.5,-0.895 -1.5,-2 0,-1.105 0.672,-2 1.5,-2 0.828,0 1.5,0.895 1.5,2 z"
         transform="matrix(15.333333,0,0,11.5,414.99999,878.8622)"
         id="path35" />
    </g>
  </g>
  <g
     transform="translate(9.9999996e-7,0.0022)"
     id="g37">
    <path
       style="opacity:0.15;fill:url(#1-0)"
       inkscape:connector-curvature="0"
       d="M 47,24 C 47,36.703 36.703,47 24,47 11.297,47 1,36.703 1,24 1,11.297 11.297,1 24,1 36.703,1 47,11.297 47,24 z"
       id="path39" />
  </g>
  <g
     transform="translate(9.9999996e-7,0.0022)"
     id="g61">
    <path
       style="opacity:0.1"
       inkscape:connector-curvature="0"
       d="m 40.03,7.531 c 3.712,4.084 5.969,9.514 5.969,15.469 0,12.703 -10.297,23 -23,23 C 17.045,46 11.615,43.744 7.53,40.031 11.708,44.322 17.54,47 23.999,47 c 12.703,0 23,-10.298 23,-23 0,-6.462 -2.677,-12.291 -6.969,-16.469 z"
       id="path63" />
  </g>
  <g
     id="g41">
    <g
       clip-path="url(#clipPath-297957161)"
       id="g43">
      <g
         transform="translate(0,1)"
         id="g45">
        <g
           opacity="0.1"
           id="g47">
          <g
             id="g49">
            <path
               d="m 20 14 l 0 3 l 1 0 l 0 2 l 1 0 l 0 2 l -1 0 l 0 -2 l -2 0 l 0 5 l 1 0 l 0 1 l 2 0 l 0 1 l -2 0 l 0 1 l -1 0 l 0 6 l 1 0 l 0 1 l 8 0 l 0 -1 l 1 0 l 0 -6 l -1 0 l 0 -1 l -2 0 l 0 -1 l 2 0 l 0 -1 l 1 0 l -0.156 -5 l -1.844 0 l 0 2 l -1 0 l 0 -2 l 1 0 l 0 -2 l 1 0 l 0 -3 l -3 0 l 0 4 l -2 0 l 0 -4 m 0 13 l 4 0 l 0 1 l 1 0 l 0 1 l -6 0 l 0 -1 l 1 0 m -1 2 l 2 0 l 0 2 l -2 0 m 4 -2 l 2 0 l 0 2 l -2 0 m 0 -2"
               fill="#000"
               stroke="none"
               fill-rule="nonzero"
               fill-opacity="1"
               id="path51" />
          </g>
        </g>
      </g>
    </g>
  </g>
  <g
     id="g53">
    <g
       clip-path="url(#clipPath-308442271)"
       id="g55">
      <g
         id="g57">
        <path
           d="m 20 14 l 0 3 l 1 0 l 0 2 l 1 0 l 0 2 l -1 0 l 0 -2 l -2 0 l 0 5 l 1 0 l 0 1 l 2 0 l 0 1 l -2 0 l 0 1 l -1 0 l 0 6 l 1 0 l 0 1 l 8 0 l 0 -1 l 1 0 l 0 -6 l -1 0 l 0 -1 l -2 0 l 0 -1 l 2 0 l 0 -1 l 1 0 l -0.156 -5 l -1.844 0 l 0 2 l -1 0 l 0 -2 l 1 0 l 0 -2 l 1 0 l 0 -3 l -3 0 l 0 4 l -2 0 l 0 -4 m 0 13 l 4 0 l 0 1 l 1 0 l 0 1 l -6 0 l 0 -1 l 1 0 m -1 2 l 2 0 l 0 2 l -2 0 m 4 -2 l 2 0 l 0 2 l -2 0 m 0 -2"
           fill="#9cf"
           stroke="none"
           fill-rule="nonzero"
           fill-opacity="1"
           id="path59" />
      </g>
    </g>
  </g>
</svg>

<svg xmlns="http://www.w3.org/2000/svg" xmlns:xlink="http://www.w3.org/1999/xlink" width="48" viewBox="0 0 13.546667 13.546667" height="48">
 <defs>
  <linearGradient y2="31.619" x2="0" y1="299.81" gradientTransform="matrix(0.11931818,0,0,0.11931818,414.13636,48.22727)" gradientUnits="userSpaceOnUse" id="0" xlink:href="#9"/>
  <clipPath>
   <rect y="53" x="417" height="30" width="30" fill="url(#0)" color="#bebebe" rx="7"/>
  </clipPath>
  <linearGradient y2="28.571" x2="0" y1="302.86" gradientTransform="matrix(0.0875,0,0,0.0875,414.9,97.5)" gradientUnits="userSpaceOnUse" id="1" xlink:href="#9"/>
  <clipPath>
   <rect width="22" height="22" x="417" y="101" fill="url(#1)" color="#bebebe" rx="5"/>
  </clipPath>
  <linearGradient y2="28" x2="0" y1="124" gradientUnits="userSpaceOnUse" id="2" xlink:href="#9"/>
  <clipPath>
   <rect y="32" x="292" height="88" width="88" fill="url(#2)" color="#bebebe" rx="18"/>
  </clipPath>
  <linearGradient y2="140" x2="0" y1="204" gradientUnits="userSpaceOnUse" id="3" xlink:href="#9"/>
  <clipPath>
   <rect width="60" height="60" x="290" y="142" fill="url(#3)" color="#bebebe" rx="12.5"/>
  </clipPath>
  <linearGradient y2="40" x2="0" y1="280" gradientTransform="translate(0,-4)" gradientUnits="userSpaceOnUse" id="4" xlink:href="#9"/>
  <clipPath>
   <rect width="220" height="220" x="34" y="46" fill="url(#4)" color="#bebebe" rx="50"/>
  </clipPath>
  <linearGradient y2="40" x2="0" y1="280" gradientTransform="matrix(0.06666667,0,0,0.06666667,302.4,209.33333)" gradientUnits="userSpaceOnUse" id="5" xlink:href="#9"/>
  <clipPath>
   <rect transform="matrix(0,1,-1,0,0,0)" y="212" x="304" height="16" width="16" fill="url(#5)" color="#bebebe" rx="3"/>
  </clipPath>
  <linearGradient y2="40" x2="0" y1="291.43" gradientTransform="matrix(0.11931818,0,0,0.11931818,430.13636,32.227267)" gradientUnits="userSpaceOnUse" id="6" xlink:href="#9"/>
  <clipPath>
   <rect y="37" x="433" height="30" width="30" fill="url(#6)" color="#bebebe" rx="6"/>
  </clipPath>
  <linearGradient y2="40" x2="0" y1="291.43" gradientTransform="matrix(0.0875,0,0,0.0875,430.9,81.499996)" gradientUnits="userSpaceOnUse" id="7" xlink:href="#9"/>
  <clipPath>
   <rect width="22" height="22" x="433" y="85" fill="url(#7)" color="#bebebe" rx="4"/>
  </clipPath>
  <linearGradient y2="40" x2="0" y1="280" gradientTransform="matrix(0.175,0,0,0.175,302.79999,215.99997)" gradientUnits="userSpaceOnUse" id="8" xlink:href="#9"/>
  <clipPath>
   <rect transform="matrix(0,1,-1,0,0,0)" width="42" height="42" x="307" y="223" fill="url(#8)" color="#bebebe" rx="9"/>
  </clipPath>
  <linearGradient id="9">
   <stop stop-color="#040e18"/>
   <stop offset="1" stop-color="#1e3a50"/>
  </linearGradient>
  <linearGradient xlink:href="#9" id="A" gradientUnits="userSpaceOnUse" gradientTransform="matrix(1.10528,0,0,1.10528,-134.28288,-295.77052)" y1="279.1" x2="0" y2="268.33"/>
 </defs>
 <rect height="12.982" rx="6.491" y="0.282" x="0.282" width="12.982" opacity="0.5" fill="#ffffff" fill-rule="evenodd"/>
 <rect height="11.853" rx="5.926" y="0.847" x="0.847" width="11.853" fill="url(#A)" fill-rule="evenodd"/>
 <path d="M 20 14 L 20 17 L 21 17 L 21 19 L 22 19 L 22 21 L 21 21 L 21 19 L 19 19 L 19 24 L 20 24 L 20 25 L 22 25 L 22 26 L 20 26 L 20 27 L 19 27 L 19 33 L 20 33 L 20 34 L 28 34 L 28 33 L 29 33 L 29 27 L 28 27 L 28 26 L 26 26 L 26 25 L 28 25 L 28 24 L 29 24 L 28.84375 19 L 27 19 L 27 21 L 26 21 L 26 19 L 27 19 L 27 17 L 28 17 L 28 14 L 25 14 L 25 18 L 23 18 L 23 14 L 20 14 z M 23 27 L 27 27 L 27 28 L 28 28 L 28 29 L 22 29 L 22 28 L 23 28 L 23 27 z M 22 30 L 24 30 L 24 32 L 22 32 L 22 30 z M 26 30 L 28 30 L 28 32 L 26 32 L 26 30 z " transform="scale(0.28222223,0.28222223)" fill="#99ccff"/>
</svg>
